!!!!SEGMENT: pl-kk--kk-i-382--095-008_richling--msza-na-3-glosy-offertorium.krn
!!!cenid: 18xx:1620
!!!COM: Richling
!!!COM-rismID: pe50045950
!!!CDT:
!!!CNT:
!!!OPR: Msza na 3 głosy
!!!OTL: Offertorium
!!!OMV: 008
!!!PDT:
!!!AGN: Sacred; Mass
!!!SMS-siglum: PL-Kk
!!!SMS-shelfmark: Kk.I.382
!!!SMS-shelfwork: 095-008 M
!!!SMS-variant:
!!!SMS-altvar:
!!!NIFC-rismSourceID: 1001142973
!!!NIFC-islandoraID: pl-kk:6162
!!!URL-pdf-islandora: https://repozytorium.nifc.pl/islandora/object/pl-kk%3A6162/datastream/PDF/view
!!!URL-scan: https://polish.musicsources.pl/pl/lokalizacje/galeria/rekopisy/5994 @EN{Scan on Polish Music Herritage in Open Access Website} @PL{Skany w portalu Dziedzictwo Muzyki Polskiej w otwartym dostępie}
!!!ONB-nifc: S/T1 od 0065, A/B1 od 0208, B2 od 0282. Części Mszy: 1. Requiem, 2. Dies irae, 3. Offertorium, 4. Sanctus, 5. Benedictus, 6. Agnus, 7. Graduale, 8. Offertorium
!!!AIN: 1 alto 1 bass 1 tenor
!!!key:
**kern	**text	**kern	**text	**kern	**text
*part3	*part3	*part2	*part2	*part1	*part1
*staff3	*staff3	*staff2	*staff2	*staff1	*staff1
*group1	*	*group1	*	*group1	*
*Ibass	*	*Ialto	*	*Itenor	*
*I"Basso II	*	*I"Alto. vel Basso I	*	*I"Soprano vel Tenore I.	*
*I'B II	*	*I'A vel B I	*	*I'S vel T I	*
*clefF4	*	*clefG2	*	*clefG2	*
*	*	*ITrd7c12	*	*ITrd7c12	*
*k[b-]	*	*k[b-]	*	*k[b-]	*
*F:	*	*F:	*	*F:	*
*M3/4	*	*M3/4	*	*M3/4	*
*all\right	*	*all\right	*	*all\right	*
*all/left	*	*all/left	*	*all/left	*
=1	=1	=1	=1	=1	=1
!LO:TX:a:t=1	!	!LO:TX:a:t=1	!	!	!
2.rD	.	2.r	.	4F/	Pro-
.	.	.	.	4A/	-te-
.	.	.	.	4F/	-ge
=2	=2	=2	=2	=2	=2
4C/	Pro-	4E/	Pro-	4.c\	Do-
4E\	-te-	4G/	-te-	.	.
.	.	.	.	8B\	-mi-
4C/	-ge	4E/	-ge	4c\	-ne
=3	=3	=3	=3	=3	=3
4.F\	Do-	4F/	Do-	4A/	pro-
.	.	4B-\	-mi-	4d\	-te-
8E\	-mi-	.	.	.	.
4F\	-ne	4A/	-ne	4c\	-ge
=4	=4	=4	=4	=4	=4
4D\	pro-	4A/	pro-	4f\	Do-
!	!	!	!	!LO:TX:t=P:problem="W. Richling" ołówkiem	!
4G\	-te-	4B-\	-te-	4e\	-mi-
4F\	-ge	4A/	-ge	4f\	-ne
=5	=5	=5	=5	=5	=5
!LO:TX:a:t=1	!	!LO:TX:a:t=solo	!	!LO:TX:a:t=1	!
2.r	.	4D/	pro-	2.rb	.
!	!	!LO:TX:t=P:problem="Rychling" ołówkiem	!	!	!
.	.	4F/	-te-	.	.
.	.	4D/	-ge	.	.
!LO:LB:g=original	!	!LO:PB:g=original	!	!LO:LB:g=original	!
=6	=6	=6	=6	=6	=6
4AA/	pro-	4.A/	Do-	4c#X\	pro-
4C#X/	-te-	.	.	4e\	-te-
.	.	8G#X/	-mi-	.	.
4AA/	-ge	4A/	-ne	4c#\	-ge
=7	=7	=7	=7	=7	=7
4.D\	pro-	4F/	pro-	4.d\	Do-
.	.	4B-\	-te-	.	.
8C#X/	-te-	.	.	8e\	-mi-
4D\	-ge	4A/	-ge	4f\	-ne
=8	=8	=8	=8	=8	=8
4BB-/	Do-	4D/	Do-	4F/	Do-
4E-X\	-mi-	4F/	-mi-	8G/L	-mi-
.	.	.	.	8A/J	.
4D\	-ne	4F/	-ne	4B-\	-ne
=9	=9	=9	=9	=9	=9
*	*	*	*	*2\right	*
2BB-/	ple-	(>4F/	ple-	2d\	ple-
.	.	4G/)	.	.	.
4BB-/	-bem	4F/	-bem	4d\	-bem
=10	=10	=10	=10	=10	=10
2BB-/	tu-	(>4.EnX/	tu-	2c\	tu-
.	.	8F/)	.	.	.
4BB-/	-am	8G/L	-am	4c\	-am
.	.	8E/J	.	.	.
=11	=11	=11	=11	=11	=11
4AA/	per	4F/	per	4c\	per
4A\	si-	4c\	si-	4f\	si-
4G\	-gnum	4B-X\	-gnum	4e\	-gnum
!	!	!LO:LB:g=original	!	!LO:LB:g=original	!
=12	=12	=12	=12	=12	=12
*2\right	*	*	*	*	*
2F\	San-	2A/	San-	(4e\	San-
.	.	.	.	4d\)	.
4E\	-cte	4G/	-cte	4c\	-cte
!LO:LB:g=original	!	!	!	!	!
=13	=13	=13	=13	=13	=13
!	!	!	!	!LO:TX:t=P:problem=łuk do 4c ołówkiem	!
(2D\	Cru-	4.F/	Cru-	2B\	cru-
.	.	8A-X/	.	.	.
!	!	!	!	!LO:TX:t=P:problem=ołówkiem przekreślone słowo "cis" i wpisane pod nutę 4c	!
4GG/)	.	8G/L	.	4G/	-cis
.	.	8F/J	.	.	.
=14	=14	=14	=14	=14	=14
4C/	-cis	4E/	-cis	4c\	.
4C/	ab	4E/	ab	4G/	ab
4C/	in-	4E-X/	in-	4G/	in-
=15	=15	=15	=15	=15	=15
4.BBn/	-si-	4.D/	-si-	4.G/	-si-
8BB/	-di-	8D/	-Di-	8G/	-di-
4C/	-is	4E-X/	-is	4G/	-is
=16	=16	=16	=16	=16	=16
!LO:SIC:v:l:s=i-	!	!LO:SIC:v:l:s=i-	!	!LO:SIC:v:l:s=i-	!
4D-X\	in-	4E-X/	in-	(8G/L	in-
.	.	.	.	8A-X/J	.
!LO:SIC:v:l:s=-ni-	!	!LO:SIC:v:l:s=-ni-	!	!LO:SIC:v:l:s=-ni-	!
4D-\	.	4E-/	.	8B-/L	.
.	.	.	.	8A/J)	.
!LO:SIC:v:l:s=-mi-	!	!LO:SIC:v:l:s=-mi-	!	!LO:SIC:v:l:s=-mi-	!
4D-\	-ni-	4E-/	-ni-	8B-/L	-ni-
.	.	.	.	8G/J	.
=17	=17	=17	=17	=17	=17
2C/	-co-	2A-X/	-co-	(4.e-X\	-co-
.	.	.	.	8c\)	.
4C/	-rum	4E-X/	-rum	4A/	-rum
!	!	!LO:LB:g=original	!	!LO:LB:g=original	!
=18	=18	=18	=18	=18	=18
4.AA-X/	Om-	4.E-X/	om-	4.c\	om-
8AA-/	-ni-	8E/	-ni-	8c\	-ni-
4AA-/	-um	4F/	-um	4c\	-um
=19	=19	=19	=19	=19	=19
!!LO:TX:t=P:problem:♭ ołówkiem	!	!	!	!	!
!LO:SIC:v:s=4AA-	!	!	!	!	!
4AA/	ut	4F#X/	ut	4c\	ut
!LO:SIC:v:s=4AA-	!	!	!	!	!
4AA/	ti-	4F#/	ti-	8d\L	ti-
.	.	.	.	8c\J	.
!LO:SIC:v:s=4AA-	!	!	!	!	!
4AA/	-bi	4F#/	-bi	8B\L	-bi
.	.	.	.	8c\J	.
!LO:LB:g=original	!	!	!	!	!
=20	=20	=20	=20	=20	=20
(4GG/	gra-	4G/	gra-	2enX\	gra-
2G\)	.	4c\	.	.	.
.	.	4B\	.	4d\	.
=21	=21	=21	=21	=21	=21
4C/	-tam	4c\	-tam	4c\	-tam
4r	.	4r	.	4r	.
4C/	ex-	4E/	ex-	4c\	ex-
=22	=22	=22	=22	=22	=22
4E\	-hi-	4G/	-hi-	(4.c\	-hi-
4C/	.	4B-X\	.	.	.
.	.	.	.	8d\)	.
4F\	-be-	4A/	-be-	4c\	-be-
=23	=23	=23	=23	=23	=23
8F\L	-a-	(4G/	-a-	(4B-X\	-a-
8E\J	.	.	.	.	.
4F\	.	4F/)	.	4A/)	.
4D\	-mus	4A/	-mus	[4f\	-mus
!	!	!LO:LB:g=original	!	!LO:LB:g=original	!
=24	=24	=24	=24	=24	=24
*	*	*2\right	*	*	*
2G\	ser-	[2B-\	ser-	8f\L]	.
.	.	.	.	8e\J	.
.	.	.	.	8d\L	ser-
.	.	.	.	8e\J	.
4F\	-vi-	8B-\L]	.	4d\	-vi-
.	.	8A\J	-vi-	.	.
=25	=25	=25	=25	=25	=25
4E\	-tu-	8B-\L	-tu-	4c\	-tu-
.	.	8A\J	.	.	.
4F\	-tem	8G/L	-tem	4c\	-tem
.	.	8A/J	.	.	.
8E\	et	8G/	et	8c\	et
8E\	ac-	8G/	ac-	8c\	ac-
!LO:LB:g=original	!	!	!	!	!
=26	=26	=26	=26	=26	=26
4D\	-cep-	4F/	-cep-	8c\L	-cep-
.	.	.	.	8B-\J	.
4D\	-ta-	4F/	-ta-	8A\L	-ta-
.	.	.	.	8B-\J	.
8BB-/	-bi-	8F/	-bi-	8d\	-bi-
8AA/	-le	8F/	-le	8c\	-le
=27	=27	=27	=27	=27	=27
4.GG#X/	fi-	4F/	fi-	4B\	fi-
.	.	4F/	-at	4c\	-at
8AA/	-at	.	.	.	.
8F\	sa-	8F/	sa-	8F/	sa-
8F\	-cri-	8F/	-cri-	8F/	-cri-
!	!	!LO:LB:g=original	!	!	!
=28	=28	=28	=28	=28	=28
2D-X\	-fi-	8F/L	-fi-	2B-X\	-fi-
.	.	8EnX/	.	.	.
.	.	8F/	.	.	.
.	.	8G/J	.	.	.
8D-\	-ci-	8A-X/	-ci-	8B\	-ci-
8D-\	-um	8F/	-um	8B\	-um
!	!	!	!	!LO:PB:g=original	!
=29	=29	=29	=29	=29	=29
4C/	nos-	4E/	nos-	4c\	nos-
4C/	-trum	4E/	-trum	4G/	-trum
4r	.	4r	.	4c\	Al-
=30	=30	=30	=30	=30	=30
(4F\	Al-	4r	.	4A/	-le-
4A\)	.	4r	.	4c\	.
4F\	-le-	4F/	Al-	4F/	-lu-
!LO:LB:g=original	!	!	!	!	!
=31	=31	=31	=31	=31	=31
4D\	-lu-	4A/	-le-	[2f\	-ja
4F\	.	4F/	.	.	.
4AA/	-ja	[4c\	-lu-	8f\L]	.
.	.	.	.	8e\J	.
=32	=32	=32	=32	=32	=32
4BB-/	Al-	4c\]	.	2d\	Al-
4D\	.	8B-\L	-ja	.	.
.	.	8A\J	.	.	.
4BB-/	-le-	8G/L	Al-	[4d\	-le-
.	.	8F/J	.	.	.
!	!	!LO:LB:g=original	!	!	!
=33	=33	=33	=33	=33	=33
4C/	-lu-	4E/	-le-	4d\]	.
4E\	.	4G/	.	8c\L	.
.	.	.	.	8B-\J	.
4C/	-ja	4E/	-lu-	8A/L	-lu-
.	.	.	.	8G/J	.
=34	=34	=34	=34	=34	=34
(4F\	Al-	4F/	-ja	4A/	-ja
8E\L	.	4r	.	4r	.
8D\J)	.	.	.	.	.
(8C/L	-le-	4r	.	4r	.
8BB-/J)	.	.	.	.	.
=35	=35	=35	=35	=35	=35
!	!	!	!	!LO:TX:a:t=1	!
4AA/	-lu-	4F/	Al-	2.rb	.
4C/	.	4A/	.	.	.
4AA/	-ja	4F/	-le-	.	.
!	!	!	!	!LO:LB:g=original	!
=36	=36	=36	=36	=36	=36
!LO:SIC:v:s=2E-	!	!	!	!	!
!LO:TX:t=P:problem=♭ ołówkiem	!	!	!	!	!
2E\	Al-	2c\	-lu-	(>4F/	Al-
.	.	.	.	4A/)	.
!LO:SIC:v:s=4E-	!	!	!	!	!
4E\	-le-	4c\	.	4F/	-le-
!LO:LB:g=original	!	!	!	!	!
=37	=37	=37	=37	=37	=37
4.D\	-lu-	8c\L	.	2f\	-lu-
.	.	8B\J	.	.	.
.	.	8B-X\L	.	.	.
8BB-/	.	8d\J	.	.	.
8D\L	.	4B-\	.	4d\	-ja
8G\J	.	.	.	.	.
=38	=38	=38	=38	=38	=38
4E\	.	4B-\	.	8c\L	al-
.	.	.	.	8d\J	.
4F\	-ja	4A/	-ja	8c\L	-le-
.	.	.	.	8A\J	.
4r	.	4r	.	8F/L	.
.	.	.	.	8A/J	.
!	!	!LO:LB:g=original	!	!	!
=39	=39	=39	=39	=39	=39
4C/	Al-	4E/	Al-	2.c\	-lu-
4E\	-le-	4G/	-le-	.	.
4C/	-lu-	4B-/	-lu-	.	.
=40	=40	=40	=40	=40	=40
2.F\	-ja	2.A/	-ja	2.c\	-ja
==	==	==	==	==	==
*-	*-	*-	*-	*-	*-
!!!system-decoration: [g1]
!!!RDF**kern: > = above
!!!RDF**kern: < = below
!!!ENC: Andrzej Kubiczek
!!!END: 2021-03-26
!!!ENC: Andrzej Borzym
!!!END: 2021-03-06
